src/assets/images/icons/tv.svg

<svg width="24" height="24" viewBox="0 0 24 24" fill="none" xmlns="http://www.w3.org/2000/svg">
<path d="M17 2L12 7L7 2M4 7H20C21.1046 7 22 7.89543 22 9V20C22 21.1046 21.1046 22 20 22H4C2.89543 22 2 21.1046 2 20V9C2 7.89543 2.89543 7 4 7Z" stroke="#181D27" stroke-width="2" stroke-linecap="round" stroke-linejoin="round"/>
</svg>

<svg xmlns="http://www.w3.org/2000/svg" fill="none" viewBox="0 0 24 24"><path stroke="#181D27" stroke-linecap="round" stroke-linejoin="round" stroke-width="2" d="m17 2-5 5-5-5M4 7h16a2 2 0 0 1 2 2v11a2 2 0 0 1-2 2H4a2 2 0 0 1-2-2V9a2 2 0 0 1 2-2"/></svg>
